dist/svgs/unicons/line/vertical-distribute-bottom.svg

<svg xmlns="http://www.w3.org/2000/svg" viewBox="0 0 24 24"><path d="M21 18h-1v-5a1 1 0 00-1-1H5a1 1 0 00-1 1v5H3a1 1 0 000 2h18a1 1 0 000-2zm-3 0H6v-4h12zM3 10h18a1 1 0 000-2h-2V5a1 1 0 00-1-1H6a1 1 0 00-1 1v3H3a1 1 0 000 2zm4-4h10v2H7z"/></svg>

<svg xmlns="http://www.w3.org/2000/svg" viewBox="0 0 24 24"><path d="M21,18H20V13a1,1,0,0,0-1-1H5a1,1,0,0,0-1,1v5H3a1,1,0,0,0,0,2H21a1,1,0,0,0,0-2Zm-3,0H6V14H18ZM3,10H21a1,1,0,0,0,0-2H19V5a1,1,0,0,0-1-1H6A1,1,0,0,0,5,5V8H3a1,1,0,0,0,0,2ZM7,6H17V8H7Z"/></svg>
